!!!!SEGMENT: pl-wn--sd-xvi-qu-273--019_gomolka-mikolaj--glupia-madrosci-rozumie-szalony.krn
!!!cenid: 15xx:224
!!!COM: Gomółka, Mikołaj
!!!COM-rismid: pe30013343
!!!CDT: ~1535->1591/04/30
!!!CNT: Polish
!!!GTL: Melodiae na psalterz polski
!!!OTL: XIX. Głupia mądrości, rozumie szalony,
!!!ONB: PSALM XIX. Coeli enarrant gloriam Dei.
!!!PDT: 1580
!!!AGN: Sacred
!!!SMS-siglum: PL-Wn
!!!SMS-shelfmark: SD XVI.Qu.273
!!!SMS-shelfwork: 019 G
!!!NIFC-rismid:
!!!ONB-nifc: Melodiae na psalterz polski
**kern	**text	**kern	**text	**kern	**text	**kern	**text
*part4	*part4	*part3	*part3	*part2	*part2	*part1	*part1
*staff4	*staff4	*staff3	*staff3	*staff2	*staff2	*staff1	*staff1
*clefF3	*	*clefC3	*	*clefC2	*	*clefG2	*
!LO:TX:t=P:problem:dwa bemole przy kluczu, do tego inne niż na kolejnej stronie	!	!	!	!	!	!	!
*k[b-]	*	*k[b-]	*	*k[b-]	*	*k[b-]	*
*F:	*	*F:	*	*F:	*	*F:	*
*M2/1	*	*M2/1	*	*M2/1	*	*M2/1	*
*met(C|)	*	*met(C|)	*	*met(C|)	*	*met(C|)	*
*I"BASSUS.	*	*I"TENOR.	*	*I"ALTUS.	*	*I"CANTUS.	*
*>[A,A,B]	*>[A,A,B]	*>[A,A,B]	*>[A,A,B]	*>[A,A,B]	*>[A,A,B]	*>[A,A,B]	*>[A,A,B]
*>A	*>A	*>A	*>A	*>A	*>A	*>A	*>A
*xywh-21r:535,5349,5003,1318	*	*xywh-21r:516,4030,5070,1327	*	*xywh-21r:545,2741,4984,1366	*	*xywh-21r:583,1125,4984,1683	*
=1-	=1	=1-	=1	=1-	=1	=1-	=1
*	*^	*	*^	*	*^	*	*^
1F\	GŁu-	Gdyś	1c\	GŁu-	Gdyś	1f\	Głu-	Gdyś	1a/	Głu-	Gdyś
2F/	-pia	ná	2c/	-pia	ná	2.f\	-pia	ná	2a/	-pia	ná
2BB-/	mą-	u-	2d\	mą-	u-	.	.	.	2b-/	mą-	u-
.	.	.	.	.	.	4d/	mą-	u-	.	.	.
=2-	=2	=2	=2-	=2	=2	=2-	=2	=2	=2-	=2	=2
1C/	-dro-	-my-	2.c\	-dro-	-my-	4e/	-dro-	-my-	4g/	-dro-	-my-
.	.	.	.	.	.	2f\	.	.	2a/	.	.
.	.	.	4B-/	-śći,	-śle	4e/	.	.	4g/	-śći	-(śle)
2F\	-śći,	-śle	2A/	ro-	ták	2f\	-śći,	-śle	2a/	ro-	ták
2.F\	ro-	ták	1f\	-zu-	i-	2.a\	ro-	ták	1cc\	-zu-	ie(st)
=3-	=3	=3	=3-	=3	=3	=3-	=3	=3	=3-	=3	=3
.	.	.	.	.	.	.	.	.	.	.	.
4G\	-zu-	iest	.	.	.	4b-\	-zu-	iest	.	.	.
1A\	-mie	za-	2e\	.	.	4cc\	.	.	2a/	-mie	.
.	.	.	.	.	.	4b-\	.	.	.	.	.
.	.	.	4f\	.	-e-	4a\	-mie	za-	2cc\	.	zá-
.	.	.	4e\	.	.	4g\	.	-śle-	.	.	.
4B-\	sza-	-śle-	4d\	.	-st	2f\	.	-pio-	1dd\	sza-	-śle-
4A\	.	.	4c/	.	zá-	.	.	.	.	.	.
=4-	=4	=4	=4-	=4	=4	=4-	=4	=4	=4-	=4	=4
4G\	.	.	4B-/	-mie	.	2g\	sza-	-ny,	.	.	.
4F\	.	.	4A/	sza-	-śle-	.	.	.	.	.	.
2G\	-lo-	-pio-	2B-/	-lo-	-pio-	4d/	-lo-	.	2b-\	-lo-	-pio-
.	.	.	.	.	.	4e/	.	.	.	.	.
1F\	-ny:	-ny:	1c\	-ny:	-ny,	1f\	-ny:	.	1a/	-ny:	-ny,
*	*v	*v	*	*v	*v	*	*v	*v	*	*v	*v
=5:|!	=5	=5:|!	=5	=5:|!	=5	=5:|!	=5
*>B	*	*>B	*	*>B	*	*>B	*
1c\	Ze	2r	.	2g\	Ze	1ee\	Ze
.	.	2g\	Ze	2cc\	bo-	.	.
2d\	bo-	2f\	bo-	2a\	-gá	2.ff\	bo-
2B-\	-gá	2f\	-gá	2b-\	nie-	.	.
.	.	.	.	.	.	4ee\	-gá
=6-	=6	=6-	=6	=6-	=6	=6-	=6
1d\	nie-	1f\	nie-	4a\	.	4dd\	nie-
.	.	.	.	4g\	.	4cc\	-znasz,
.	.	.	.	4a\	-znasz,	2dd\	.
.	.	.	.	4b-\	.	.	.
2c\	-z(nasz,)	2g\	-z(nasz,)	2cc\	.	2ee\	.
2C/	tym	2c/	tym	2e/	tym	2g/	tym
!!LO:PB:g=original
=7-	=7	=7-	=7	=7-	=7	=7-	=7
*xywh-21v:1181,5295,5071,1270	*	*xywh-21v:1152,4083,5149,1231	*	*xywh-21v:1181,2774,5052,1241	*	*xywh-21v:1172,1161,5081,1641	*
2D/	ćie-	2A/	ćie-	2.d/	ćie-	2.f/	ćie-
2BB-/	-le-	2B-/	-le-	.	.	.	.
.	.	.	.	4e/	-le-	4e/	-le-
2D/	-snym	4A/	.	2.f\	-snym	4d/	-snym
.	.	4G/	.	.	.	4c/	.
2D/	o-	4A/	.	.	.	2d/	o-
.	.	4B-/	-snym	4d/	o-	.	.
=8-	=8	=8-	=8	=8-	=8	=8-	=8
2C/	-kiem	2c/	.	2g\	-kiem	2e/	-kiem
2F/	Poy-	2A/	o-	2c/	Poy-	2f/	Poy-
1F\	-źrzy	1A/	-kiem	1c/	-(źrzy)	1f/	-(źrzy)
=9-	=9	=9-	=9	=9-	=9	=9-	=9
4BB-/	przy-	1d\	Poy-	1f\	przy-	1b-\	przy-
4C/	.	.	.	.	.	.	.
4D/	.	.	.	.	.	.	.
4E/	.	.	.	.	.	.	.
1F\	-na-	1c\	-źrzy	1f\	-na-	1a/	-na-
=10-	=10	=10-	=10	=10-	=10	=10-	=10
2C/	-mniéy	2c/	przy-	2e/	-(mniéy)	2g/	-(mniéy)
2C/	po	2c/	-na-	2cc\	po	2.gg\	po
1c\	nie-	1e\	-(mniéy)	2.g\	nie-	.	.
.	.	.	.	.	.	4ff\	nie-
.	.	.	.	.	.	2ee\	-bie
.	.	.	.	4a\	-bie	.	.
=11-	=11	=11-	=11	=11-	=11	=11-	=11
1B-\	-bie	1.f\	po	2b-\	szy-	1dd\	szy-
.	.	.	.	4f\	-ro-	.	.
.	.	.	.	4g\	.	.	.
1A\	szy-	.	.	2a\	.	1.cc\	.
.	.	1e\	nie-	4e/	.	.	.
.	.	.	.	4f\	.	.	.
=12-	=12	=12-	=12	=12-	=12	=12-	=12
0G\	-ro-	.	.	2.g\	.	.	.
.	.	4d\	-bie	.	.	4b/	.
.	.	4c\	szy-	4f\	.	4a/	.
.	.	4d\	.	4g\	.	4b/	-ro-
.	.	4e\	.	4a\	.	2cc\	.
.	.	2d\	-ro-	4g\	.	.	.
.	.	.	.	4f\	-kiem.	4b/	.
=13-	=13	=13-	=13	=13-	=13	=13-	=13
0C/ll	-kiem.	0c\ll	-kiem.	0e\ll	.	0cc\ll	-kiem.
==	==	==	==	==	==	==	==
*-	*-	*-	*-	*-	*-	*-	*-
!!!RDF**kern: l = terminal long
!!!system-decoration: s1,s2,s3,s4
!!!RDF**kern: > = above
!!!ENC: Marta Lawrence
!!!END: 2020-02-04
!!!URL-scan: https://polona.pl/item/melodiae-na-psalterz-polski,Nzk3MTM4ODQ/58 Scan on Polona
!!!IIIF: https://polona.pl/iiif/item/Nzk3MTM4ODQ/manifest.json
